material/.icons/material/account-question.svg

<svg xmlns="http://www.w3.org/2000/svg" viewBox="0 0 24 24"><path d="M13 8a4 4 0 01-4 4 4 4 0 01-4-4 4 4 0 014-4 4 4 0 014 4m4 10v2H1v-2c0-2.21 3.58-4 8-4s8 1.79 8 4m3.5-3.5V16H19v-1.5h1.5m-2-5H17V9a3 3 0 013-3 3 3 0 013 3c0 .97-.5 1.88-1.29 2.41l-.3.19c-.57.4-.91 1.01-.91 1.7v.2H19v-.2c0-1.19.6-2.3 1.59-2.95l.29-.19c.39-.26.62-.69.62-1.16A1.5 1.5 0 0020 7.5 1.5 1.5 0 0018.5 9v.5z"/></svg>

<?xml version="1.0" encoding="UTF-8"?><!DOCTYPE svg PUBLIC "-//W3C//DTD SVG 1.1//EN" "http://www.w3.org/Graphics/SVG/1.1/DTD/svg11.dtd"><svg xmlns="http://www.w3.org/2000/svg" xmlns:xlink="http://www.w3.org/1999/xlink" version="1.1" id="mdi-account-question" width="24" height="24" viewBox="0 0 24 24"><path d="M13,8A4,4 0 0,1 9,12A4,4 0 0,1 5,8A4,4 0 0,1 9,4A4,4 0 0,1 13,8M17,18V20H1V18C1,15.79 4.58,14 9,14C13.42,14 17,15.79 17,18M20.5,14.5V16H19V14.5H20.5M18.5,9.5H17V9A3,3 0 0,1 20,6A3,3 0 0,1 23,9C23,9.97 22.5,10.88 21.71,11.41L21.41,11.6C20.84,12 20.5,12.61 20.5,13.3V13.5H19V13.3C19,12.11 19.6,11 20.59,10.35L20.88,10.16C21.27,9.9 21.5,9.47 21.5,9A1.5,1.5 0 0,0 20,7.5A1.5,1.5 0 0,0 18.5,9V9.5Z" /></svg>
